X:1
T:Ancient sports of the glen, The
T:Sealg a's S\`ugradh nan gleann
R:Slow Air
S:Simon Fraser Collection
N:No.221
O:Scottish
M:3/4
L:1/8
Q:1/4=90
K:D
d>c|(BA) F2A2|(f2 c2) B>c|d2F2A2|B3z d>c|BA F2A2|(f2 e2)B>c|
d2F2A2|B3z||d>e|f2d2c2|(e2 c2) d<e|f2d2B2|c3z a>e|f2B2c2|
(A2 B2) d>c|(BA) F2A2|B3 z||
